X:1
T: Belfast Chicken
C:
R:Reel
Q:232
K:D
M:4/4
L:1/8
|:d2e2 dc Ac|=cB cG EF GE|Dd dc dc Ad|dB AG FDD2|
d2e2 dc Ac|=cB cG EF GE|Dd dc dc Ad|dB AG FDD2|
ef ge e=c gc|e=c gc dc cg|fg af gd dg|fd ag fd dg|
ef ge e=c gc|e=c gc dc cg|ab af ge dB|AB AG FDD2:|
